X:1
T:Long Ago a Shining Throng
T:Long Ago a Shining Throng
T:William A. Post
T:Kate Ulmer, 1903
T:Public Domain Courtesy of the Cyber Hymnal™
T:Public Domain Courtesy of the Cyber Hymnal™
C:William A. Post
Z:Public Domain
Z:Courtesy of the Cyber Hymnal™
%%score ( 1 2 ) 3
L:1/8
Q:1/4=100
M:6/8
K:C
V:1 treble 
V:2 treble 
V:3 bass 
V:1
 [CE]2 [CE] [CEA]2 [CEG] | (GF)[B,G] [B,F]3 | [B,F]2 [B,F] [B,FB]2 [B,FA] | (AG)[CE^F] [CEG]3 | %4
w: 1.~Long a- go a|shin- * ing throng,|Thrilled the mid- night|air * with song;|
w: 2.~Might- y God and|Prince * of Peace,|Nev- er shall His|glo- * ry cease;|
w: 3.~Sing, ye heav’n- ly|hosts * on high,|Sons of men, with|joy * re- ply,|
 [CEG]2 [CEG] [CGc]2 [CGB] | (BA)[CF^G] [CFA]3 | [^FA]2 [FA] [FB]2 [Fc] | %7
w: For the Sav- ior|prom- * ised long,|Lay in Beth- l’em’s|
w: But for- ev- er|more * in- crease,|Till He rules a-|
w: Sound His praise through|earth * and sky,|In His love re-|
"^riten." ([Fd]3 [FG]2) z | [CE]2 [CE] [CEA]2 [CEG] | (GF)[B,E] [B,F]3 | %10
w: stall. *|O- ver Ju- dah’s|si- * lent plain,|
w: lone. *|All the earth shall|own * His sway,|
w: joice. *|Let the swell- ing|cho- * rus ring,|
 [B,F]2 [B,F] [B,FB]2 [B,FA] | (AG)[CE^F] [CEG]3 | [CEG]2 [CEG] [CGc]2 [CGB] | (BA)^G B2 A | %14
w: Sweet- ly rang the|joy- * ous strain;|Of His birth, who|yet * shall reign, As|
w: Crowns and king- doms|pass * a- way;|Kings to him shall|trib- * ute pay, Up-|
w: Hail Him Lord and|crown * Him king;|Of His power for-|ev- * er sing, With|
 [EG]3 [Fd]3 | [Ec]3- [Ec]2 z ||"^Refrain" [Ge]3 [Ge]3 | (ed)A [=Fd]3 | [Fd]3 [Fd]3 | (dc)G [Ec]3 | %20
w: king of|all. *|||||
w: on the|throne. *|Praise Him,|an- * gels bright,|Praise Him,|stars * of light,|
w: heart and|voice. *|||||
 [Ec]3 [DB]3 | (BA)^G [CA]3 | [^FA]2 [FA] [FB]2 [Fc] | ([Fd]3 [FG]2) z | [Ge]3 [Ge]3 | %25
w: |||||
w: Tell His|wond- * rous might,|Who to- day was|born. *|Shout, O|
w: |||||
 (ed)A [=Fd]3 | [Fd]3 [Fd]3 | (dc)G [Ec]3 | [Ec]3 [DB]3 | (BA)^G B2 A | [EG]3 [Fd]3 | %31
w: ||||||
w: shout * His name,|Glad- ly|now * pro- claim,|How to|save * He came, This|hap- py|
w: ||||||
 [Ec]3- [Ec]2 z |] %32
w: |
w: morn. *|
w: |
V:2
 x6 | B,2 x4 | x6 | [CE]2 x4 | x6 | [CF]2 x4 | x6 | x6 | x6 | B,2 x4 | x6 | [CE]2 x4 | x6 | %13
 [CF]3 ^D3 | x6 | x6 || x6 | ^F3 x3 | x6 | E3 x3 | x6 | C3 x3 | x6 | x6 | x6 | ^F3 x3 | x6 | %27
 E3 x3 | x6 | C3 ^D3 | x6 | x6 |] %32
V:3
 [C,G,]3 [G,,G,]3 | [D,G,]3 [G,,G,]3 | [D,G,]3 [G,,G,]3 | [C,G,]3 [G,,G,]3 | [C,G,]3 [E,G,]3 | %5
 [F,A,]3 [F,A,]3 | [D,C]2 [D,C] [D,B,]2 [D,A,] | [G,B,]3- [G,B,]2 z | [C,G,]3 [G,,G,]3 | %9
 [D,G,]3 [G,,G,]3 | [D,G,]3 [G,,G,]3 | [C,G,]3 [G,,G,]3 | [C,G,]3 [E,G,]3 | [F,A,]3 [^F,C]3 | %14
 [G,C]3 [G,B,]3 | [C,C]3- [C,C]2 z || [C,C]3 [^C,_B,]3 | [D,A,]3 [D,C]3 | [G,B,]3 [G,B,]3 | %19
 [C,C]3 [C,C]3 | [C,G,]3 [E,^G,]3 | [F,A,]3 [F,A,]3 | [D,C]2 [D,C] [D,B,]2 [D,A,] | %23
 [G,B,]3- [G,B,]2 z | [C,C]3 [^C,_B,]3 | [D,A,]3 [D,C]3 | [G,B,]3 [G,B,]3 | [C,C]3 [C,C]3 | %28
 [C,G,]3 [E,^G,]3 | [F,A,]3 [^F,C]3 | [G,C]3 [G,B,]3 | [C,C]3- [C,C]2 z |] %32

